dist/assets/images/icons/ico-slide-6 6.svg

<svg width="20" height="24" viewBox="0 0 20 24" fill="none" xmlns="http://www.w3.org/2000/svg">
<path d="M7.73009 9.12086H6.82861V3.04028H7.73009V9.12086Z" fill="#0000FF"/>
<path d="M9.07348 9.12086V3.04028H11.0355C11.5982 3.04028 12.0504 3.18148 12.3922 3.46386C12.7368 3.74625 12.9092 4.14608 12.9092 4.66335V5.09881C12.9092 5.63719 12.7368 6.0555 12.3922 6.35372C12.0504 6.65194 11.5982 6.80105 11.0355 6.80105H9.97496V9.12086H9.07348ZM10.9427 3.78452H9.97496V6.05682H10.9427C11.6498 6.05682 12.0033 5.71109 12.0033 5.01964V4.74253C12.0033 4.10386 11.6498 3.78452 10.9427 3.78452Z" fill="#0000FF"/>
<path d="M9.40187 16.2191C9.40187 16.8615 9.24626 17.3592 8.93502 17.7122C8.62637 18.0653 8.2264 18.2418 7.73512 18.2418C7.24383 18.2418 6.84258 18.058 6.53135 17.6905C6.22269 17.3201 6.06836 16.7993 6.06836 16.1279V13.515C6.06836 12.8436 6.22269 12.3242 6.53135 11.9567C6.84258 11.5863 7.24383 11.4011 7.73512 11.4011C8.20839 11.4011 8.59421 11.5675 8.89258 11.9003C9.19095 12.2302 9.34014 12.6975 9.34014 13.3023V13.4542H8.5492V13.3717C8.5492 12.602 8.27784 12.2171 7.73512 12.2171C7.15124 12.2171 6.8593 12.6729 6.8593 13.5844V14.7043C7.09336 14.2442 7.45346 14.0141 7.9396 14.0141C8.36658 14.0141 8.71639 14.1906 8.98904 14.5437C9.26426 14.8938 9.40187 15.3929 9.40187 16.0411V16.2191ZM6.8593 16.0498V16.2061C6.8593 17.0192 7.15124 17.4258 7.73512 17.4258C8.01291 17.4258 8.22897 17.3259 8.3833 17.1263C8.53763 16.9266 8.61479 16.6199 8.61479 16.2061V16.0498C8.61479 15.2367 8.32157 14.8301 7.73512 14.8301C7.15124 14.8301 6.8593 15.2367 6.8593 16.0498Z" fill="#0000FF"/>
<path d="M12.0872 14.4048C11.8634 14.4048 11.6885 14.4684 11.5625 14.5957C11.4364 14.7231 11.3593 14.8866 11.331 15.0862H10.5709V11.4879H13.5263V12.3039H11.331V14.1921C11.547 13.813 11.8673 13.6235 12.2917 13.6235C12.7418 13.6235 13.0839 13.7884 13.318 14.1183C13.552 14.4453 13.6691 14.9256 13.6691 15.5593V16.2712C13.6691 16.8991 13.5199 17.3852 13.2215 17.7296C12.9257 18.071 12.5476 18.2418 12.0872 18.2418C11.6242 18.2418 11.2422 18.0783 10.9413 17.7513C10.6429 17.4243 10.4938 16.9657 10.4938 16.3753V16.1279H11.2808V16.2365C11.2808 17.0293 11.5496 17.4258 12.0872 17.4258C12.3316 17.4258 12.5245 17.3303 12.6659 17.1393C12.8074 16.9454 12.8781 16.656 12.8781 16.2712V15.6114C12.8781 14.807 12.6145 14.4048 12.0872 14.4048Z" fill="#0000FF"/>
<path d="M14.1059 19.3457C12.2965 21.5385 10.4519 22.7282 9.70613 23.1558C8.89226 22.7745 6.79631 21.621 4.84271 19.1255C2.69965 16.3879 0.701665 12.0026 0.788886 5.16938L4.58096 0.5H14.9204L18.7107 5.16714C18.7558 12.2256 16.2299 16.7716 14.1059 19.3457L14.4915 19.6639L14.1059 19.3457Z" stroke="#DF0112"/>
</svg>

<svg width="20" height="24" fill="none" xmlns="http://www.w3.org/2000/svg"><path d="M7.73 9.12h-.9V3.04h.901v6.08zm1.343 0V3.04h1.963c.562 0 1.014.141 1.356.424.345.282.517.682.517 1.2v.435c0 .538-.172.957-.517 1.255-.342.298-.794.447-1.356.447H9.975v2.32h-.902zm1.87-5.335h-.968v2.272h.968c.707 0 1.06-.346 1.06-1.037v-.277c0-.64-.353-.958-1.06-.958zM9.402 16.22c0 .642-.156 1.14-.467 1.492-.309.353-.709.53-1.2.53s-.892-.184-1.204-.552c-.308-.37-.463-.89-.463-1.562v-2.613c0-.671.155-1.19.463-1.558a1.5 1.5 0 011.204-.556c.473 0 .86.167 1.158.5.298.33.447.796.447 1.401v.152h-.79v-.082c0-.77-.272-1.155-.815-1.155-.584 0-.876.456-.876 1.367v1.12c.234-.46.594-.69 1.08-.69.428 0 .777.177 1.05.53.275.35.413.849.413 1.497v.178zm-2.543-.17v.156c0 .813.292 1.22.876 1.22.278 0 .494-.1.648-.3.155-.2.232-.506.232-.92v-.156c0-.813-.293-1.22-.88-1.22-.584 0-.876.407-.876 1.22zm5.228-1.645c-.224 0-.399.063-.524.19a.844.844 0 00-.232.491h-.76v-3.598h2.955v.816h-2.195v1.888c.216-.379.536-.569.96-.569.45 0 .793.165 1.027.495.234.327.351.808.351 1.441v.712c0 .628-.15 1.114-.447 1.459a1.434 1.434 0 01-1.135.512 1.49 1.49 0 01-1.146-.49c-.298-.328-.447-.786-.447-1.377v-.247h.787v.108c0 .793.269 1.19.806 1.19a.682.682 0 00.579-.287c.141-.194.212-.483.212-.868v-.66c0-.804-.264-1.206-.79-1.206z" fill="#00F"/><path d="M14.106 19.346c-1.81 2.192-3.654 3.382-4.4 3.81-.814-.381-2.91-1.535-4.863-4.03C2.7 16.387.702 12.002.789 5.168L4.58.5h10.34l3.79 4.667c.045 7.059-2.481 11.605-4.605 14.179l.386.318-.386-.318z" stroke="#DF0112"/></svg>
